svgs/sharp-thin/utility-pole.svg

<svg xmlns="http://www.w3.org/2000/svg" viewBox="0 0 512 512"><!--! Font Awesome Pro 6.6.0 by @fontawesome - https://fontawesome.com License - https://fontawesome.com/license (Commercial License) Copyright 2024 Fonticons, Inc. --><path d="M240 16l0 64 32 0 0-64-32 0zM224 80l0-64 0-16 16 0 32 0 16 0 0 16 0 64 144 0 0-40 0-8 16 0 0 8 0 40 48 0 0-40 0-8 16 0 0 8 0 40 0 16 0 32 0 16-16 0-85.5 0L288 228.2 288 504l0 8-16 0 0-8 0-279.9 0-.2 0-79.9-32 0 0 79.9 0 .2L240 504l0 8-16 0 0-8 0-275.8L101.5 144 16 144 0 144l0-16L0 96 0 80 0 40l0-8 16 0 0 8 0 40 48 0 0-40 0-8 16 0 0 8 0 40 144 0zM104.1 128L224 128l16 0 32 0 16 0 119.9 0 .2 0 87.9 0 0-32L288 96l-16 0-32 0-16 0L16 96l0 32 87.9 0 .2 0zm25.6 16L224 208.8l0-64.8-94.2 0zm252.5 0L288 144l0 64.8L382.2 144z"/></svg>

<svg xmlns="http://www.w3.org/2000/svg" viewBox="0 0 512 512"><!--! Font Awesome Pro 6.5.2 by @fontawesome - https://fontawesome.com License - https://fontawesome.com/license (Commercial License) Copyright 2024 Fonticons, Inc. --><path d="M240 16V80h32V16H240zM224 80V16 0h16 32 16V16 80H432V40 32h16v8V80h48V40 32h16v8V80 96v32 16H496 410.5L288 228.2V504v8H272v-8V224.1c0-.1 0-.1 0-.2V144H240v79.9c0 .1 0 .1 0 .2V504v8H224v-8V228.2L101.5 144H16 0V128 96 80 40 32H16v8V80H64V40 32H80v8V80H224zM104.1 128H224h16 32 16H407.9c.1 0 .1 0 .2 0H496V96H288 272 240 224 16v32h87.9c.1 0 .1 0 .2 0zm25.6 16L224 208.8V144H129.8zm252.5 0H288v64.8L382.2 144z"/></svg>
